svgs/regular/coins.svg

<svg xmlns="http://www.w3.org/2000/svg" viewBox="0 0 512 512"><!-- Font Awesome Pro 6.0.0-alpha2 by @fontawesome - https://fontawesome.com License - https://fontawesome.com/license (Commercial License) --><path d="M192 129.352C96 129.352 0 158.234 0 216V424C0 481.766 96.594 512 192 512S384 481.766 384 424V216C384 158.234 288 129.352 192 129.352ZM336 424C336 434.281 286.5 464 192 464S48 434.281 48 424V380.109C84.994 398.533 138.666 408 192 408S299.006 398.533 336 380.109V424ZM336 320C336 330.281 286.5 360 192 360S48 330.281 48 320V276.109C84.994 294.533 138.666 304 192 304S299.006 294.533 336 276.109V320ZM192 256C97.5 256 48 226.281 48 216S97.5 176 192 176S336 205.719 336 216S286.5 256 192 256ZM320 0C205.775 0 135.995 39.841 135.995 68.407C135.995 78.578 143.986 92.438 159.978 92.438C182.405 92.438 189.669 48 320 48C414.5 48 464 77.719 464 88C464 89.875 457.094 101.797 424.25 112.984C414.281 116.39 407.99 125.72 407.99 135.709C407.99 148.913 418.724 159.703 432 159.703C440.566 159.703 459.428 150.526 464 148.24V192C464 193.922 456.938 206.016 423.438 217.266C413.385 220.633 407.056 229.983 407.056 240.008C407.056 253.286 417.848 264.016 431.062 264.016C440.116 264.016 460.8 253.794 464 252.193V296C464 297.875 457.094 309.797 424.25 320.984C414.281 324.39 407.99 333.72 407.99 343.709C407.99 356.913 418.724 367.703 432 367.703C438.28 367.703 512 346.465 512 296V88C512 30.234 415.406 0 320 0Z "></path></svg>

<svg xmlns="http://www.w3.org/2000/svg" viewBox="0 0 512 512"><!--! Font Awesome Pro 6.0.0-alpha3 by @fontawesome - https://fontawesome.com License - https://fontawesome.com/license (Commercial License) --><path d="M192 129.4c-96 0-192 28.88-192 86.65v208C0 481.8 96.59 512 192 512s192-30.23 192-88v-208C384 158.2 288 129.4 192 129.4zM336 424c0 10.28-49.5 40-144 40s-144-29.72-144-40v-43.89C84.99 398.5 138.7 408 192 408s107-9.467 144-27.89V424zM336 320c0 10.28-49.5 40-144 40S48 330.3 48 320V276.1C84.99 294.5 138.7 304 192 304s107-9.467 144-27.89V320zM192 256C97.5 256 48 226.3 48 216S97.5 176 192 176s144 29.72 144 40S286.5 256 192 256zM320 0C205.8 0 135.1 39.84 135.1 68.41c0 10.17 7.99 24.03 23.98 24.03C182.4 92.44 189.7 48 320 48c94.5 0 144 29.72 144 40c0 1.875-6.906 13.8-39.75 24.98c-9.969 3.406-16.26 12.74-16.26 22.72c0 13.2 10.73 23.99 24.01 23.99c8.566 0 27.43-9.177 32-11.46V192c0 1.922-7.062 14.02-40.56 25.27c-10.05 3.367-16.38 12.72-16.38 22.74c0 13.28 10.79 24.01 24.01 24.01c9.054 0 29.74-10.22 32.94-11.82V296c0 1.875-6.906 13.8-39.75 24.98c-9.969 3.406-16.26 12.74-16.26 22.72c0 13.2 10.73 23.99 24.01 23.99c6.28 0 80-21.24 80-71.7v-208C512 30.23 415.4 0 320 0z"/></svg>
